X:3819
T:Danza (CT 370) (Arrg.)
R:Danza
C:Tradicional
S:Música Tradicional Asturiana, (C) Tello & Tito. Asturies, 2001.
S:http://pagina.de/MusTradAst <telloytito@asturies.org>
N:Danza, transcrita en Cuideiru.
N:Se efectúa preferentemente el día de Santana, e intervienen solamente mujeres.
O:Cuideiru
A:Asturies
G:Arrg.
Z:Cancioneru de Torner 370
M:2/4
L:1/8
Q:1/4=112
W:¡Válgame el Señor San Pedro
W:y la Virgen Soberana!
W:Quien quiera danzar que dance,
W:que yo danzo hasta mañana.
W:
W:A la gloriosa Santana
W:le pedimos muy de veras,
W:que nos dé buenos mocinos
W:a todas las casaderas.
W:
W:Aire, que el día se acaba,
W:aire, que se acaba el día;
W:las mozas de Cuideiru
W:danzan con gran alegría.
K:G
cB|:"G"G>B dd|"Am"A>A cB|"G"G>G "D"AF|"G"G>G cB|
"G"G>G AF|"D"D>D DG|"Bm"F>G "D"AF|"G"G G-G2-|
[1 "G"Gz cB :|[2 "G"G z ||


